!! Frances Densmore, Pueblo
!! NEW WORK
!! No. 1
**kern
*clefF4
*k[b-]
*M2/4
*MM132
=
4c
8c
8d
=
4c
4c
=
4c
8c
8d
=
4c
8g
8f
=
4d
8d
8g
=
4f
8f
8d
=
4c
8c
8f
=
4d
4d
=
4d
4d
=
4d
8d
8f
=
4c
4c
=
4A
8c
8d
=
8c
8r
4c
=
4A
8c
8d
*M3/4
=
4c
4c
8r
8c
*M2/4
=
8c
8c
8B-
8B-
=
8d
8d
4c
=
8d
8d
8c
=
8d
8d
8d
8d
=
8d
8d
8d
8f
=
4c
4c
=
4A
8c
8d
=
4c
4c
=
8A
8r
8c
8d
*M3/4
=
4c
4c
8r
8c
*M2/4
=
8c
8c
8g
8f
=
4c
4c
=
8c
8d
4c
=
4c
4c
=
4c
8r
==
!! NEW WORK
!! No. 2
**kern
*clefF4
*k[f#c#g#d#a#]
*M3/4
*MM88
8B
16F#
16F#
8F#
8F#
8F#
8F#
=
8d#
8d#
8f#
8f#
16f#
16f#
8d#
=
8f#
8f#
16f#
16d#
16d#
16B
16F#
8.F#
*M2/4
=
16B
16G#
16G#
16G#
8F#
8D#
=
(12F#
12F#
12D#)
8G#
8r
=
8G#
8G#
16F#
16F#
8D#
=
8G#
8G#
16F#
16F#
8D#
*M3/4
=
16G#
8G#
16G#
16F#
16D#
8D#
8D#
8r
=
8d#
8d#
16d#
16B
16G#
16F#
8G#
8G#
=
8c#
8c#
16c#
16B
16G#
16F#
8G#
8G#
=
16G#
16G#
8D#
16G#
16G#
8F#
8D#
8r
*M2/4
=
16D#
8D#
16D#
8D#
8D#
==
!! NEW WORK
!! No. 3
**kern
*clefF4
*k[f#]
*M3/4
*MM92
!! "A"
=
16d
16d
16.d
32d
(8d
8G)
8G
8G
=
16B
16A
16.A
32A
8A
8G
8G
8G
=
16B
16A
16.A
32A
8A
8G
8G
8G
*M2/4
=
8A
8A
8G
8G
=
8A
8A
8G
8G
=
8G
8G
8G
8r
=
*MM116
!! "B"
4B
4A
=
8A
8G
8G
8G
=
8B
8A
8A
=
8A
8G
8G
8G
=
8B
8A
8A
8A
=
8A
8G
8G
8G
*M3/4
=
8A
8G
8G
8G
8A
=
8G
8G
8G
8G
8r
=
!! NEW WORK
!! No. 4
**kern
*clefF4
*k[b-e-]
*M2/4
*MM96
=
4r
!! "A"
8B-
8B-
=
8e-
8f
8e-
16e-
16c
=
8e-
8c
8B-
8B-
=
16e-
8.c
16c
8.B-
=
8B-
8G
8F
8B-
=
8B-
8B-
8B-
8B-
=
8B-
8r
8B-
8B-
=
16e-
8.c
16c
8.B-
=
8B-
8G
8F
8B-
=
8B-
8B-
8B-
8B-
=
16d
16c
8r
!! "B"
8B-
8B-
=
8f
8f
8e-
8c
=
8e-
8c
8c
8B-
8B-
=
8c
8c
8B-
=
8B-
8G
8B-
8B-
=
8B-
8B-
8B-
8B-
=
8B-
8r
8B-
8B-
=
8c
8c
8B-
8b-
=
8.B-
16G
8F
8B-
=
8B-
8B-
8B-
8B-
=
16d
16c
16c
16B-
8c
8B-
*M3/4
=
8c
8c
8B-
8B-
8r
=
8B-
8B-
8B-
8B-
8B-
8B-
*M2/4
=
8c
8c
8B-
=
!! NEW WORK
!! No. 5
**kern
*clefF4
*k[b-e-a-d-]
*M2/4
*MM100
=
4.r
!! "A"
8A-
=
8e-
8e-
8e-
8e-
=
8B-
8B-
8e-
8B-
*M3/4
=
8B-
8B-
8B-
8A-
8A-
8A-
=
8e-
8e-
8B-
8B-
8e-
8B-
=
8B-
8B-
8B-
8A-
8B-
8B-
=
8e-
8B-
8B-
8A-
8B-
8A-
*M2/4
=
8A-
8r
8A-
8A-
=
8e-
8e-
8e-
8e-
=
8B-
8B-
8e-
8B-
*M3/4
=
8B-
8B-
8B-
8A-
8A-
8r
*M2/4
=
4e-
8B-
8B-
=
8e-
8B-
8B-
8B-
=
8B-
8A-
8B-
8B-
=
8e-
8B-
8B-
8A-
=
8B-
8A-
8A-
8A-
=
8A-
8A-
8A-
8r
*M6/8
=
*MM184
!! "B"
8e-
8B-
8B-
8A-
8A-
8A-
=
8B-
8B-
8B-
8A-
8A-
8A-
=
16d
16B-
8B-
8B-
8A-
8A-
8A-
*M7/8
=
8B-
8B-
8B-
8A-
8A-
8r
8B-
*M6/8
=
8B-
8B-
8A-
16B-
16A-
8A-
8A-
*M3/8
=
8A-
8A-
8d-
*M5/8
=
8B-
8B-
8A-
8A-
8A-
*M6/8
=
8B-
8B-
8B-
8A-
8A-
8r
*M7/8
=
8B-
8B-
8B-
8A-
8A-
8A-
8B-
=
8B-
8B-
8A-
16B-
16A-
8A-
8A-
8A-
*M5/8
=
8A-
8A-
8A-
8r
8A-
=
8A-
8A-
8A-
8r
=
!! NEW WORK
!! No. 6
**kern
*clefF4
*k[f#c#]
*M2/4
*MM126
=
4B
4d
=
8d
8c#
8d
8B
=
8d
8c#
8d
8B
=
4c#
4c#
=
8c#
8F#
4F#
=
4c#
4c#
=
16d
8.B
16B
8.F#
=
8B
8B
8B
8r
=
4B
4B
=
8B
8F#
8F#
8r
=
4F#
4c#
=
16d
8.c#
16c#
8.B
=
4c#
8.c#
16B
=
4c#
8c#
8B
=
4c#
8c#
8B
=
8c#
8c#
8c#
8B
=
8c#
8F#
4F#
=
4d
4c#
=
16d
8.B
16B
8.F#
=
8B
8B
8B
8F#
=
4B
4B
=
8B
8F#
8F#
8r
=
!! NEW WORK
!! No. 7
**kern
*clefF4
*k[]
*M3/4
*MM84
=
2r
!! "A"
16c
16A
8A
=
8c
8c
8c
8c
8A
8A
=
8c
8c
8c
8c
16e
16d
16d
16c
=
16e
16d
8c
8c
8c
8A
8A
=
8A
8G
8G
8r
16c
16A
8A
=
8c
8c
8c
8c
8A
8A
=
8c
8c
8c
8c
16e
16d
16d
16c
=
16e
16d
8c
8c
8c
8A
8A
=
8A
8G
8G
8r
16c
16A
8A
=
8c
8c
8c
8c
8A
8A
=
8c
16c
16c
8c
8c
8A
8A
=
8c
16c
16c
8c
8c
8A
8A
=
16c
16c
8c
8c
8c
8c
16A
16r
=
8c
16c
16c
8c
8c
8c
8c
*M3/8
=
8r
!! "B"
8A
8A
*M2/4
=
8c
8c
8c
16.c
32d
*M3/4
=
8d
8A
4A
8A
8A
=
8c
8c
8c
8r
!! "A"
16c
16A
8A
=
8c
8c
8c
8c
8A
8A
=
8c
8c
8c
8c
16e
16d
16d
16c
=
16e
16d
8c
8c
8c
8c
8A
8A
=
8A
8G
8G
8r
8r
=
!! NEW WORK
!! No. 8
**kern
*clefF4
*k[b-e-]
*M2/4
*MM92
=
2r
8r
!! "A"
8G
=
8F
8F
8F
8G
=
8F
8F
8F
8F
*M3/4
=
8c
8c
8d
8d
8c
8B-
*M7/8
=
8G
8G
8G
8G
8F
8G
8G
*M2/4
=
8c
8c
8B-
8G
*M3/4
=
8G
8G
8G
8G
8r
*M2/4
=
*MM72
8G
8B-
8G
8B-
=
8G
8G
4F;
=
*MM92
8F
8F
8F
8F
=
8G
8F
8F
8F
*M5/8
=
8F
8F
8F
8r
8F
*M3/4
=
8c
8c
8d
8d
8c
8B-
*M7/8
=
8G
8G
8G
8G
8F
16G
16G
*M2/4
=
8c
8c
8B-
8F
=
8G
8G
8G
8r
*M3/4
=
8F
8G
16c
8c
16B-
8F
8G
=
8F
8G
16c
8c
16B-
8F
8G
*M2/4
=
8F
8G
8F
8G
*M3/4
=
32F
16.F
8G
32F
16.F
8G
8F
8G
=
8F
8F
8F
8F
8F
8F
=
8F
8F
8F
8F
8F
8r
*M2/4
=
!! "B"
4f
4f
*M3/4
=
8f
8f
8c
16c
16G
8G
8B-
*M2/4
=
*MM116
8.B-
16B-
4G
=
4G
4G
*M3/4
=
*MM92
8B-
8d
8d
8d
16d
16B-
8B-
*M2/4
=
8F
8G
16B-
16F
8F
*M3/4
=
16F
8.F
8F
8F
8.r
16d
*M2/4
=
*MM76
24d
24B-
12B-
12d
24d
24B-
12B-
12G
=
*MM106
4B-
16c
8.B-
=
8.G
16F
8.G
16A
*M3/4
=
*MM92
8G
8G
8G
8G
16F
16F
8r
=
8F
8F
8G
16.F
32F
4F
*M2/4
=
8G
8F
8G
16.8F
32F
=
8F
8F
8F
8r
=
!! NEW WORK
!! No. 9
**kern
*clefF4
*k[b-e-]
*M2/4
*MM126
=
4d
8d
8e-
=
8d
8A
4A
=
8c
8B-
8A
8G
=
4A
4A
=
8A
8B-
4G
=
8G
8A
8G
8r
=
4G
8G
8A
=
4G
4G
=
4d
8d
8e-
=
8d
8A
4A
=
8A
8B-
8A
8G
*M3/4
=
4A
8A
8B-
8A
8B-
*M2/4
=
8G
8r
8G
8A
=
4G
8r
=
4G
8G
8A
=
4G
4B-
*M3/4
=
4B-
8B-
8G
4A
*M2/4
=
4B-
8B-
8G
*M3/4
=
4A
8A
8B-
8A
8B-
*M2/4
=
4G
8G
8A
=
4G
8r
=
4G
8G
8A
=
4G
4B-
*M3/4
=
4B-
8A
8G
4A
=
4B-
8A
8G
4A
*M2/4
=
4B-
8A
8G
*M3/4
=
4A
8A
8B-
8A
8B-
*M2/4
=
4G
8G
8A
=
4G
8r
=
!! NEW WORK
!! No. 10
**kern
*clefF4
*k[]
*M2/4
*MM112
=
(16c
8.G)
8G
8G
=
4e
4e
=
4d
(8c
8G)
*M3/4
=
4c
4c
8c
8r
*M2/4
=
4c
8c
8c
=
4e
4e
=
4d
(8c
8G)
=
(4c
4G)
*M3/4
=
4G
4G
8G
8r
*M2/4
=
(8c
8G)
8G
8G
*M3/4
=
4c
8d
8d
12c
(12c
12G)
*M2/4
=
4c
(8c
8G)
*M3/4
=
8G
8G
8G
8G
8r
=
4G
8G
8G
8G
8G
=
4c
8d
8d
12c
(12c
12G)
*M2/4
=
4c
(8c
8G)
*M3/4
=
8G
8G
4G
8A
8r
*M2/4
=
4G
8G
8G
=
8r
8G
8G
8r
=
4G
8G
8G
=
!! NEW WORK
!! No. 11
**kern
*clefG2
*k[b-e-a-]
*M2/4
*MM132
=
8c
8B-
8B-
8B-
=
8B-
8B-
4B-
=
8c
8B-
8B-
8B-
=
16G
16r
8B-
4B-
=
!! "A"
8g
8b-
8b-
8cc
=
8b-
8g
4e-
=
8B-
8B-
8B-
=
8c
8B-
8B-
8B-
=
8B-
8B-
16F
8B-
16r
=
8g
8b-
8b-
8cc
=
8b-
8g
4e-
=
8B-
8B-
4B-
=
8c
8B-
8B-
8B-
=
8B-
8B-
8G
8r
=
!! "B"
8f
8f
12f
12f
12f
=
4f
4B-
=
4B-
8B-
8B-
=
8B-
8B-
8B-
8B-
=
8B-
8B-
8G
8r
=
8f
8f
12f
12f
12f
=
4f
4B-
=
8B-
8B-
8B-
8r
=
4B-
8B-
8B-
=
8G
8B-
4B-
=
4e-
8e-
8r
=
4B-
4B-
=
8G
8e-
4B-
*M3/4
=
8B-
8B-
8B-
8B-
4B-
=
!! NEW WORK
!! No. 12
**kern
*clefG2
*k[b-e-a-]
*M2/4
*MM120
=
4B-
8B-
8B-
*M3/4
=
4B-
4B-
4B-
*M2/4
=
4B-
8B-
8B-
*M3/4
=
4B-
4B-
8B-
8r
*M2/4
=
8B-
8B-
4B-
=
8c
8B-
4B-
=
4b-
4b-
=
8b-
8e-
8e-
8c
*M3/4
=
4B-
4B-
8B-
8r
=
8.B-
16e-
16e-
8.e-
8e-
8r
*M2/4
=
8e-
8e-
4e-
=
4e-
8e-
8e-
=
8e-
8c
8c
8B-
=
4B-
8B-
8e-
=
8c
8B-
8B-
8B-
*M3/4
=
8c
8B-
8B-
8B-
8B-
8r
=
8B-
8B-
4B-
8c
8B-
=
!! NEW WORK
!! No. 13
**kern
*clefF4
*k[f#c#]
*M2/4
*MM126
=
4d
4d
*M3/4
=
8A
8d
4A
4A
=
8d
8A
4A
8A
8B
*M2/4
=
4A
4A
=
4A
8r
8A
=
*MM112
!! "A"
4e
8e
8e
=
8e
8e
8e
8f#
*M3/4
=
8a
8g
8g
8f#
4e
=
8e
8B
8B
8B
8B
8e
=
8e
8d
8d
8B
8B
8r
=
8d
8A
8A
8A
8A
8d
=
8d
8B
8B
8d
8d
8B
=
4A
8A
8B
8B
8A
*M2/4
=
4A
4A
8A
8B
*M3/4
=
4A
8A
8A
8r
=
8e
8e
8e
8e
8f#
*M3/4
=
4A
4A
8A
8r
=
*MM92
!! "B"
4d
12B
12d
12d
4d
*M2/4
=
12d
12B
12B
12A
12A
24A
24r
=
8.B
16B
12A
12A
24A
24r
=
8.B
16B
12A
12A
24A
24r
=
4B
4A
=
8A
8A
8A
8r
=
12d
12d
12d
12d
12d
12d
=
12d
12B
12B
12A
12A
12A
*M3/4
=
*MM126
4B
4A
8A
8A
*M2/4
=
4B
4A
=
4A
8A
8A
=
4A
4r
=
!! NEW WORK
!! No. 14
**kern
*clefF4
*k[f#c#g#d#a#]
*M2/4
*MM126
=
8B
8B
8B
8B
=
8F#
8B
4B
*M3/4
=
8g#
8f#
8b
8f#
4f#
=
8f#
8B
16d#
8B
16G#
8G#
8F#
*M2/4
=
8B
8G#
8B
8B
=
8G#
8G#
4G#
=
8r
8G#
4G#
=
16d#
16B
8d#
8d#
8B
=
8G#
8d#
4d#
=
8B
8d#
16d#
16B
8B
=
8G#
8G#
4G#
=
16d#
16B
8d#
8d#
8B
=
8G#
8d#
4d#
=
8B
8d#
16d#
16B
8B
=
8G#
8G#
8G#
8r
*M3/4
=
16B
16G#
8G#
8G#
8B
8B
8B
=
8G#
8G#
8G#
8B
8B
8B
=
8G#
8G#
8G#
8G#
8G#
8r
=
16B
16G#
8G#
8G#
8d#
8B
8B
=
8G#
8G#
8G#
8d#
8B
8B
=
8G#
16G#
16r
8G#
8d#
8B
8B
=
8G#
8G#
8G#
8d#
8B
8d#
=
8B
8G#
8G#
8G#
8G#
8r
=
8B
8G#
8G#
8d#
8B
8d#
=
4G#
8G#
8G#
8G#
8G#
=
4G#
4G#
4r
=
!! NEW WORK
!! No. 15
**kern
*clefF4
*k[]
*M2/4
*MM92
=
16c
8A
16A
8c
8A
*M5/8
=
8A
8A
8A
8A
8r
*M3/4
=
16c
8A
16A
8A
8A
16c
16A
8A
=
8.g
24a
24g
24f
4f
*M2/4
=
4d
8.d
16d
=
16c
16c
8A
8G
8r
=
8.d
16f
16g
16f
16e
16d
=
8f
8c
8.A
16c
=
16A
16G
16G
16G
4G
=
4e
16d
16c
16B
16A
=
8.c
16A
8G
8r
*M3/4
=
8d
8B
8B
8B
8A
8G
=
8B
16B
16B
8B
8r
8A
8G
*M2/4
=
8d
8B
8B
8B
=
16A
8.A
8A
8B
=
8A
8A
8A
8A
*M3/4
=
8B
8A
8A
8A
8A
8r
=
8B
8A
8A
8A
16B
16B
8A
=
!! NEW WORK
!! No. 16
**kern
*clefF4
*k[f#c#]
*M2/4
*MM108
=
8A
8A
8A
8A
=
8A
8A
8A
8A
=
8B
8A
8B
8A
=
8e
8e
4e
=
8e
16d
16B
4A
*M3/4
=
8r
8B
4A
8B
8A
*M2/4
=
4.f#
16e
16f#
=
2e
=
16d
16e
16d
16B
4A
=
8e
8e
4e
=
16d
16e
16d
16B
8A
8A
*M3/4
=
(8d
8B)
8d
8B
8A
8r
*M2/4
=
4d
8d
8r
=
8d
8A
4A
=
8G
8r
8G
8A
=
8A
8d
8A
8A
=
16G
16r
8A
8A
8A
=
4A
8A
8A
=
8A
8A
8A
8A
*M3/4
=
4A
4r
8A
8A
=
4A
4A
4A
=
4A
4r
=
!! NEW WORK
!! No. 17
**kern
*clefF4
*k[f#c#g#]
*M2/4
*MM92
=
16A
16E
8E
8E
8E
=
16A
16E
8E
8E
8E
=
8E
8E
8E
8E
*M3/4
=
*MM72
!! "A"
4e
8e
16e
16c#
8A
16A
16r
*M2/4
=
4e
16e
16e
8f#
*M5/8
=
*MM132
8e
8e
8B
8B
8B
*M3/8
=
16A
16F#
16A
16F#
16E
16E
*M2/4
=
*MM92
8B
16B
16B
8B
8A
*M3/4
=
8A
8A
8E
8E
8E
8r
*M5/8
=
8e
4e
8e
8B
*M3/8
=
4e
16e
16c#
=
8A
8A
8A
*M2/4
=
8e
8e
8e
8e
=
16e
16B
16B
16B
16B
16A
16A
16A
=
8.B
16B
8.A
16B
*M3/4
=
12B
12A
12A
8E
8E
8E
8r
=
8B
16B
16A
8B
8A
8A
8A
*M2/4
=
8E
8E
8E
8E
*M3/4
=
8A
8A
8E
8A
8E
8E
*M2/4
=
16F#
16E
8E
8E
8r
*M3/4
=
16F#
16E
8E
8E
8E
8E
8E
*M2/4
=
8C#
16E
16E
8E
8E
=
4E
!! "B"
8e
8e
=
4g#
8.f#
16e
=
16f#
16e
8e
16e
16c#
16c#
16B
*M3/4
=
16c#
16A
8A
8A
8A
8E
8E
=
8A
8A
8A
8A
8E
8E
=
8A
8A
8.A
16A
8E
16E
16r
=
16B
8.B
8.A
16A
8A
8B
*M2/4
=
8B
8A
8B
8A
=
12E
12E
12E
8E
8E
*M3/4
=
8B
8B
8B
8A
8E
8E
*M2/4
=
8A
8A
8.A
16A
=
8E
8E
8E
8E
*M3/4
=
8C#
8E
8E
8r
8e
8e
=
*M2/4
8C#
8E
8E
8r
=
8A
8A
8E
8A
*M3/4
=
8E
8E
8E
8E
8E
8r
=
16F#
16E
8E
8E
8E
8E
8E
=
!! NEW WORK
!! No. 18
**kern
*clefF4
*k[b-e-a-]
*M2/4
*MM96
=
4r
4G
=
4f
16f
8.e-
*M3/4
=
16f
8.B-
4B-
4B-
*M2/4
=
16e-
8.B-
4e-
=
16e-
8.B-
16B-
8.G
=
4G
4E-
*M3/4
=
16B-
8.G
4B-
8B-
8d
=
16B-
8.G
4G
4G
=
8B-
16B-
16G
8B-
8An
4G
*M2/4
=
8B-
16B-
16G
8B-
8An
*M3/4
=
16B-
8.G
4G
4G
=
4E-
8E-
8r
8B-
8G
*M2/4
=
4B-
8B-
8d
*M3/4
=
16B-
8.G
4G
4E-
=
8B-
8G
4B-
8B-
8d
=
16B-
8.G
4G
8E-
8r
=
8B-
8G
4B-
8B-
8d
=
16B-
8.G
4G
4E-
=
8B-
8G
4B-
8B-
8d
=
16B-
8.G
4G
8E-
8r
=
8B-
8G
4B-
8B-
8d
=
8B-
8G
4G
8G
8G
=
8B-
16B-
16G
8B-
8An
4G
*M2/4
=
8B-
16B-
16G
8B-
8A
*M3/4
=
16B-
8.G
4G
4G
=
4E-
8E-
8r
=
!! NEW WORK
!! No. 19
**kern
*clefF4
*k[b-e-a-d-g-]
*M2/4
*MM152
=
8A-
8F
4F
=
8A-
8F
4F
=
4F
4F
*M3/4
=
4F
4F
4d-
*M2/4
=
!! "A"
4f
4f
=
8f
8c
4c
=
4d-
8d-
8B-
=
8B-
8F
4F
=
4F
4F
=
4B-
8B-
8F
*M3/4
=
4F
4F
4F
*M2/4
=
4D-
4F
=
8G-
8F
4F
=
4F
4F
=
4r
4G-
=
8G-
8F
4F
=
4F
4F
=
4D-
4F
=
8d-
8B-
8B-
8F
=
8B-
8F
4F
=
4F
4r
=
4F
4F
*M3/4
=
4F
4.F
8F
=
4.B-
8B-
4F;
*M2/4
=
4F
4F
=
4D-
4F
=
4D-
4F
=
8G-
8F
4F
=
4F
4F
=
4D-
4F
=
8B-
8A-
4B-
=
8B-
8F
4F
=
4F
4r
=
4F
4F
=
4F
4F
=
(8B-
8F)
4F
=
4F
4F
=
4G-
4G-
=
4G-
4F
!! missing barline added here
=
4F
4F
=
4F
4F
*M3/4
=
2r
4d-
*k[b-]
*M2/4
2r
=
!! "B"
4f
4f
=
4a
4a
=
8a
8g
8g
8f
=
8g
8f
4f
=
8f
8d
8d
8c
=
8d
8B-
4B-
=
4B-
4B-
=
4F
4B-
=
4B-
4F
=
4F
4F
=
4D
4F
=
8G
8F
4F
=
4F
4F
=
4D
4F
=
4B-
8B-
8F
=
8B-
8F
4F
=
4F
4r
=
4F
4F
=
4F
4F
=
8B-
8F
4F
=
4F
4F
=
4F
4F
=
4F
4F
*M3/4
=
4F
4F
4r
=
*M2/4
4F
4F
=
4F
4d
=
SPECIAL
!! NEW WORK
!! No. 20
**kern
*clefF4
*k[f#]
*M2/4
*MM92
=
4r
8.r
16d
=
4d
(12e
12d
12d)
=
4d
(12e
12d
12d)
=
8d
8c
8d
8A
=
4G
4G
=
8A
8c
8B
8A
=
4F#
4A
=
4G
4G
=
8E
8D
8D
8r
=
4G
4G
=
8B
8A
4A
=
8d
8c
8d
8A
=
4G
4G
=
8A
8c
8B
8A
=
4F#
4A
=
4G
4G
=
4d
4d
=
8d
8c
4d
=
8E
8D
8D
8r
=
!! NEW WORK
!! No. 21
**kern
*clefF4
*k[]
*M7/8
*MM104
=
8c
8A
4c
8A
8.c
16A
*M3/4
=
4c
4c
4c
*M2/4
=
!! "A"
8e
8c
8e
8c
=
8c
8B
4A
=
8c
8A
8c
8A
*M3/4
=
8A
8F
4F
4F
*M7/8
=
8A
8F
4A
8F
8.A
16F
*M3/4
=
4A
4A
4A
*M2/4
=
8c
8A
8c
8A
=
8A
8F
8F
8r
=
!! "B"
4A
8c
8A
*M3/4
=
8A
8F
4F
8F
8C
*M2/4
=
8F
[8F
4F]
*M5/8
=
4F
8F
8r
8A
*M7/8
=
8c
8B
16c
16r
8A
8c
8B
8c
*M5/8
=
4A
8A
8E
8A
*M3/4
=
8A
8A
4A
8A
8r
=
!! NEW WORK
!! No. 22
**kern
*clefG2
*k[]
*M3/4
*MM132
=
8G
8G
4G
4G
*M2/4
=
!! "A"
4g
4a
=
4g
4e
*M3/4
=
8.e
16d
8.e
16d
4d
*M2/4
=
4c
8A
8r
=
4d
4d
=
8.d
16c
8.A
16B
=
8.c
16A
8.G
16c
*M3/4
=
16c
8.c
4A
8G
8r
*M2/4
=
4A
8F
8F
*M3/4
=
4G
4G
8G
8r
*M2/4
=
*MM84
!! "B"
8a
16a
16g
8g
8g
=
8a
16a
16g
8g
16g
16g
*M3/4
=
8a
16a
16a
8b
16a
16a
8g
8g
=
8g
16d
16d
8c
8c
8G
16G
16G
*M2/4
=
*MM72
8A
16.A
32G
8G
16G
16r
=
8A
16A
16G
8G
16.G
32c
=
8A
8A
16A
16r
!! "C"
8a
=
16g
16g
16g
16a
16e
16e
16e
32d
32c
=
16c
16c
8A
8A
16A
16r
=
*MM84
8A
16.A
32G
8G
16.G
32c
*M7/8
=
8A
8A
8A
8A
8A
8A
8A
=
!! NEW WORK
!! No. 23
**kern
*clefG2
*k[]
*M3/4
*MM120
=
8G
8G
4G
4G
*M2/4
=
!! "A"
4g
4g
=
8.g
16e
(12d
12c
12c)
=
4d
4d
=
8.d
16c
(12c
12A
12A)
=
16d
8.d
16d
16c
8r
*M3/4
=
16d
8.d
8d
8r
4r
*M2/4
=
*MM88
!! "B"
16d
8.d
8e
8g
=
16d
8.c
8c
16A
16A
=
16c
16A
16A
16G
8G
16G
16G
=
8A
8A
4A
=
16d
8.d
8e
8g
=
16d
8.c
8c
16A
16A
=
4d
4d
*M3/4
=
8d
8c
8c
8A
8G
8A
=
4G
4G
8G
8r
*M2/4
=
8.A
16G
8E
8E
*M3/4
=
4F
4F
8F
8r
*M2/4
=
!! "C"
8.d
16d
8.d
16A
=
4d
4d
*M3/4
=
8d
8c
8.c
16A
8.G
16A
=
4G
8.G
16G
4G
*M2/4
=
4G
4G
=
4G
8G
8r
=
!! NEW WORK
!! No. 24
**kern
*clefF4
*k[b-e-a-d-g-]
*M3/4
*MM132
=
8A-
8A-
4A-
4A-
=
!! "A"
8d-
8B-
8.B-
16e-
8.e-
16d-
*M2/4
=
4e-
4e-
*M3/4
=
8d-
8B-
8.B-
16e-
8.e-
16d-
*M2/4
=
4e-
4e-
=
4e-
8d-
8B-
=
4d-
4d-
*M3/4
=
8e-
8B-
8d-
8B-
8B-
16B-
16F
*M2/4
=
4B-
8B-
8r
*M3/4
=
8d-
8B-
8B-
8F
8F
16F
16D-
*M2/4
=
4F
8F
8F
*M3/4
=
4D-
2r
=
8d-
8B-
8.B-
16e-
8.e-
16d-
*M2/4
=
4e-
4e-
*M3/4
=
8d-
8B-
8.B-
16e-
8.e-
16d-
=
4e-
4e-
8e-
8r
*M2/4
=
4f
16gn
16f
16e-
=
4f
16gn
16f
16e-
=
4..f
16e-
=
2f
=
8f
8gn
8f
8dn
=
4e-
8.e-
16dn
=
4e-
8.e-
16dn
=
4e-
4e-
=
8e-
8f
8e-
8d-
=
4e-
(12e-
12d-
12B-)
=
4B-
8B-
8r
=
8d-
8B-
8F
8F
=
4B-
4B-
=
4B-
4r
=
8B-
8r
8.r
!! "B"
16B-
=
4g
(12f
12e-
12e-)
=
4e-
4e-
=
4f
(12e-
12B-
12B-)
*M3/4
=
4B-
4B-
4B-
*M2/4
=
4e-
8.e-
16dn
=
4e-
8.e-
16dn
=
4e-
8e-
8r
=
4gn
(12f
12e-
12e-)
=
4e-
4e-
=
4f
(12e-
12B-
12B-)
=
4B-
4B-
=
4e-
(12e-
12d-
12d-)
=
4e-
8.e-
16dn
=
4e-
8e-
8r
*M3/4
=
*MM88
8e-
8e-
8e-
8e-
16f
16e-
8e-
*M7/8
=
*MM88
16f
16e-
8d-
8d-
8B-
8B-
8B-
8r
*M2/4
=
*MM132
4e-
4e-
=
(12f
12e-
12d-)
4d-
=
4B-
4F
=
(12B-
12F
12E-)
8E-
8E-
=
4E-
4E-
*M3/4
=
(12F
12E-
12E-)
4E-
4E-
=
4E-
8E-
8r
8r
=
!! NEW WORK
!! No. 25
**kern
*clefF4
*k[f#c#g#d#a#]
*M3/4
*MM108
=
4G#
4G#
4G#
=
!! "A"
16f#
8.f#
16f#
8.g#
16g#
8.f#
*M2/4
=
8c#
8c#
8c#
16d#
16c#
*M5/8
=
8B
8B
8B
8G#
8G#
*M2/4
=
16c#
8.c#
16c#
8.d#
=
16d#
8.c#
8G#
16G#
16r
=
4c#
16B
8.B
=
8c#
8B
8G#
8G#
=
4c#
16B
8.B
*M3/4
=
8c#
8B
8G#
8G#
8G#
8c#
=
8B
8G#
8G#
8G#
8G#
8r
=
8c#
8G#
8G#
8G#
8G#
8G#
=
!! "B"
8.c#
16B
8.c#
16B
4c#
*M7/8
=
8.B
16c#
8B
8G#
8G#
8G#
8r
*M3/4
=
8.c#
16B
8.c#
16B
4c#
*M7/8
=
8.B
16c#
8B
8G#
8G#
8G#
8r
*M2/4
=
*MM80
16B
16B
16B
16G#
16B
16B
16B
16c#
=
20B
20G#
20B
20G#
20G#
4G#
=
*M3/4
8B
8G#
8G#
8G#
8G#
8G#
=
!! NEW WORK
!! No. 26
**kern
*clefG2
*k[f#c#g#d#a#]
*M2/4
*MM126
=
4f#
4f#
=
4f#
4f#
=
4f#
4f#
=
4f#
4f#
=
!! "A"
8f#
[8g#
8g#]
8d#
=
4f#
4d#
*M3/4
=
8f#
[8d#
8d#]
8c#
4B
=
8d#
8c#
8d#
8B
8B
8G#
*M2/4
=
4F#
4F#
=
4F#
8F#
8r
=
!! "B"
8d#
[8f#
8f#]
8d#
*M3/4
=
4f#
8f#
8c#
4B
=
8d#
8c#
8d#
8B
8B
8G#
*M2/4
=
4F#
4F#
=
4F#
8F#
8r
=
!! NEW WORK
!! No. 27
**kern
*clefF4
*k[]
*M2/4
*MM108
=
4A
8A
8A
*M3/4
=
4A
4A
4A
*M2/4
=
!! "A"
4d
8c
8c
*M5/8
=
8d
8c
8c
4c
*M2/4
=
4d
8c
8A
*M5/8
=
8c
8A
8A
4A
*M2/4
=
4d
8c
8d
*M5/8
=
8d
8c
8c
8c
8r
*M2/4
=
4d
8c
8A
*M5/8
=
8c
8A
8A
4A
*M3/4
=
!! "B"
4e
8e
8e
8e
8f#
=
16f#
16e
8e
4e
8e
8f#
=
16f#
16d
8d
[4d
8d]
8A
*M5/8
=
8B
8A
8A
4A
*M3/4
=
4d
8d
8d
8d
8e
=
16e
16d
8d
4d
8d
8A
=
*M5/8
8B
8A
8A
4A
*M2/4
=
8e
16e
16d
4c
=
8d
16d
16c
4A
*M5/8
=
8c
8A
8A
8A
8r
*M2/4
=
8e
16e
16d
4c
=
8d
16d
16c
4A
*M5/8
=
8c
8A
8A
4A
*M2/4
=
!! "C"
8A
8A
8A
8d
*M3/4
=
8d
8c
4c
8c
8d
*M2/4
=
16c
16c
8A
8A
8A
=
16c
16c
8A
4A
=
4A
4r
=
4d
8c
8c
*M5/8
=
8d
8c
8c
4c
*M2/4
=
4d
8c
8A
*M5/8
=
8c
8A
8A
4A
*M2/4
=
4d
8c
8c
*M5/8
=
8d
8c
8c
4c
*M2/4
=
4d
8c
8A
*M5/8
=
8c
8A
8A
8A
8r
*M3/4
=
!! "B"
4e
8e
8e
8e
8f#
=
16f#
16e
8e
8e
8e
8e
8f#
=
16f#
16d
8d
8d
8d
8d
8A
*M5/8
=
4B
8A
8A
8A
*M3/4
=
4d
8d
8d
8d
8e
=
16e
16d
8d
4d
8d
8A
*M5/8
=
8B
8A
8A
8A
8r
*M2/4
=
8e
16e
16d
4c
=
8d
16d
16c
4A
*M5/8
=
8c
8A
8A
4A
*M2/4
=
8e
16e
16d
4c
=
8d
16d
16c
4A
*M5/8
=
8c
8A
8A
8A
8r
*M2/4
=
!! "C"
8A
8A
8A
8d
=
8d
8c
4c
*M3/4
=
8c
8d
8c
16A
16A
8A
8A
=
16c
16A
8A
8A
8A
8A
8r
*M2/4
=
4c
8c
8c
=
8c
8c
8c
8c
=
16c
8.A
8A
8A
*M3/4
=
16c
8.A
4A
4A
*M2/4
=
4e
16e
16d
8c
*M3/4
=
4d
16e
8.d
16d
16c
8A
*M2/4
=
4c
8c
8d
=
16c
8.A
8A
8r
*M3/4
=
4A
4A
4A
*M2/4
=
8e
8e
16e
16d
8c
*M3/4
=
4d
16e
8.d
16d
16c
8A
*M2/4
=
4c
8c
8d
*M3/4
=
16c
8.A
4A
8A
8r
=
4A
4A
4A
=
!! NEW WORK
!! No. 28
**kern
*clefF4
*k[f#c#g#d#a#]
*M2/4
*MM108
=
4G#
8G#
8G#
*M3/4
=
4G#
4G#
4G#
=
!! "A"
8G#
8d#
8d#
8d#
8d#
16d#
16c#
*M2/4
=
4B
4B
*M5/8
=
16B
16G#
8G#
8G#
4G#
*M3/4
=
8G#
8c#
8c#
8c#
12c#
12B
12d#
=
4c#
8c#
8r
4B
*M5/8
=
16B
16G#
8G#
8G#
4G#
*M3/4
=
8G#
8c#
8c#
8B
8B
8c#
*M2/4
=
4B
8B
8c#
=
16B
8.G#
8G#
8G#
*M3/4
=
4G#
4G#
8G#
8r
*M2/4
=
4G#
4G#
=
4G#
4r
*M3/4
=
!! "B"
8g#
8d#
4g#
4g#
*M2/4
=
(12g#
12d#
12d#)
(12d#
12c#
12c#)
=
8c#
8B
4d#
=
8c#
8B
4d#
=
4c#
(12c#
12B
12B)
*M3/8
=
8c#
8c#
16c#
16r
*M2/4
=
8g#
8d#
4g#
=
8d#
8c#
4d#
=
8c#
8B
4d#
=
4c#
(12c#
12B
12B)
*M5/8
=
8B
8G#
8G#
8G#
8r
*M2/4
=
!! "C"
8d#
8d#
8c#
8c#
=
8B
8B
4G#
=
8d#
8d#
8c#
8c#
=
8B
8B
8G#
8c#
=
16B
8.G#
8G#
8G#
*M3/4
=
4G#
4G#
8G#
8r
*M2/4
=
4G#
4G#
=
4B
8B
8B
=
8B
8B
8B
8B
=
16B
8.G#
8G#
8G#
*M3/4
=
8G#
8G#
4G#
8G#
8r
=
!! NEW WORK
!! No. 29
**kern
*clefF4
*k[]
*M2/4
*MM69
=
16G
16G
8E
16G
16G
8E
=
8E
8E
8E
8E
=
!! "A"
16e
8.e
16f
16e
16e
16d
=
16d
8.A
16c
16A
16A
16G
=
16A
8G
16E
8E
8E
=
8E
8G
16A
8.E
=
16E
16C
8E
8E
8r
=
8G
8G
16c
8A
16G
=
8E
8E
8E
8E
=
16G
8.G
24c
24A
24A
16G
16E
=
8G
8G
12A
12A
12A
=
8E
8E
8E
8G
=
8G
8G
8E
8r
=
16E
8.E
8E
8E
=
8G
8G
16c
8A
16G
=
8E
8E
8E
16E
16r
=
16G
8.G
24c
24A
24A
16G
16E
=
8G
8r
12A
12A
12G
=
8E
8E
8E
8G
=
8G
8G
8E
8r
=
!! "B"
16C
8.E
8E
8E
=
8G
8G
16A
8G
16G
=
16c
16A
16G
16E
8E
8G
=
8G
16E
16E
8C
8E
=
8E
8E
16.G
32E
16.G
32G
*M3/8
=
8E
8r
8E
*M2/4
=
16A
16A
8G
8G
8A
=
12A
12G
12E
16E
16E
8G
*M3/4
=
16G
8E
16E
16.G
32E
16E
8G
=
16G
16G
8E
8G
8G
8E
8r
*M2/4
=
16E
8.E
8E
8E
=
!! NEW WORK
!! No. 30
**kern
*clefF4
*k[b-e-a-d-]
*M3/4
*MM112
=
2r
8.E-
16E-
=
!! "A"
4e-
4e-
4e-
*M5/8
=
8c
8c
8c
8A-
8A-
*M2/4
=
4A-
8.A-
16E-
=
4e-
4e-
*M3/4
=
8e-
8f
8g
8e-
4e-
=
8c
8B-
8c
8B-
4B-
=
4c
4A-
8r
*M5/8
=
8c
8A-
8E-
4E-
*M2/4
=
8c
8A-
8c
8B-
*M3/4
=
8c
[8A-
8A-]
8A-
4A-
*M2/4
=
*MM72
16c
8.A-
12A-
12A-
12E-
=
16c
8.A-
16A-
16A-
16E-
16A-
=
12c
12A-
12A-
8.A-
16E-
=
8.A-
16c
8.A-
16A-
=
12E-
12E-
12E-
8.A-
16E-
*M3/4
=
8.E-
16E-
8E-
16E-
16E-
8E-
8r
*M2/4
=
12E-
12E-
12E-
8E-
16E-
16C
=
12G
12G
12G
4G
=
!! "B"
16E-
16C
16e-
16e-
12f
12c
12f
=
8.e-
16e-
4e-
*M5/8
=
8c
8c
8A-
4A-
*M3/4
=
16F
16F
16f
16e-
12f
12c
12f
12f
12e-
24e-
24r
*M2/4
=
8.c
16e-
8.B-
16B-
*M3/4
=
12c
12A-
12A-
8.E-
16E-
4r
*M2/4
=
*MM120
!! "C"
12c
12A-
12A-
4A-
=
8.A-
16E-
4E-
=
16c
8.A-
4A-
=
16A-
8.E-
16E-
8.A-
=
12c
12A-
12A-
8.c
16A-
*M5/8
=
8.E-
16A-
4r
8c
*M2/4
=
8.A-
16A-
12A-
12E-
12E-
=
8.E-
16A-
8.A-
16A-
=
12A-
12A-
12A-
8.E-
16A-
*M3/8
=
16c
16A-
16c
16B-
16A-
16E-
*M2/4
=
8.A-
16A-
8A-
8r
=
8.A-
16A-
8r
=
12e-
12e-
12c
8.e-
16g
*M3/4
=
2e-
16e-
16c
16c
16B-
*M2/4
=
12c
12A-
12A-
8.A-
16A-
*M3/4
=
12c
12B-
12B-
12c
12A-
12A-
8.A-
16c
*M2/4
=
16A-
8.A-
12A-
12E-
12E-
=
16c
8.A-
12A-
12E-
12E-
=
12c
12c
12B-
8A-
16A-
16A-
=
12c
12B-
12c
8.A-
16c
*M3/4
=
8.A-
16A-
4A-
12A-
12E-
24E-
24r
*M2/4
=
12c
12B-
12c
8.A-
16c
=
16c
16A-
16A-
8.A-
16A-
*M3/4
=
8.E-
16E-
8.E-
16E-
8E-
8r
*M2/4
=
12c
12B-
12c
8.A-
16c
*M5/8
=
12c
12A-
12A-
8A-
8r
8A-
*M2/4
=
8.E-
16E-
8.E-
16E-
=
8.E-
16A-
8.A-
16A-
=
8.E-
16E-
8.E-
16E-
*M3/4
=
8.E-
16A-
8.E-
16E-
8.E-
16E-
=
4E-
4r
4r
=
*-
